gruvbox_icons/symbolic/status/network-cellular-3g-symbolic.svg

<?xml version="1.0" encoding="UTF-8"?>
<svg height="16px" viewBox="0 0 16 16" width="16px" xmlns="http://www.w3.org/2000/svg">
    <path d="m 3 0 c -1.660156 0 -3 1.339844 -3 3 v 10 c 0 1.660156 1.339844 3 3 3 h 10 c 1.660156 0 3 -1.339844 3 -3 v -10 c 0 -1.660156 -1.339844 -3 -3 -3 z m -1 3 h 4 c 0.726562 0.019531 1.195312 0.78125 0.875 1.4375 l -1.375 2.78125 c 0.355469 0.117188 0.75 0.195312 0.96875 0.4375 c 0.332031 0.367188 0.53125 0.808594 0.53125 1.34375 v 2 c 0 1.113281 -0.90625 2 -2 2 h -3 v -2 h 3 v -2 h -1 c -0.726562 -0.019531 -1.195312 -0.78125 -0.875 -1.4375 l 1.25 -2.5625 h -2.375 z m 8 0 h 2 c 0.832031 0 1.523438 0.5625 1.769531 1.050781 c 0.246094 0.492188 0.230469 0.949219 0.230469 0.949219 v 1 h -2 v -1 h -2 v 6 h 2 v -2 h -1 v -2 h 3 v 4 s 0.015625 0.457031 -0.230469 0.949219 c -0.246093 0.488281 -0.9375 1.050781 -1.769531 1.050781 h -2 s -0.457031 0.015625 -0.949219 -0.230469 c -0.488281 -0.246093 -1.050781 -0.9375 -1.050781 -1.769531 v -6 s -0.015625 -0.457031 0.230469 -0.949219 c 0.246093 -0.488281 0.9375 -1.050781 1.769531 -1.050781 z m 0 0" fill="#2e3436"/>
</svg>

<svg xmlns="http://www.w3.org/2000/svg" width="16" height="16" version="1.1">
 <path style="fill:#cdd3e0" d="M 2 1 C 0.892 1 0 1.892 0 3 L 0 13 C 0 14.108 0.892 15 2 15 L 14 15 C 15.108 15 16 14.108 16 13 L 16 3 C 16 1.892 15.108 1 14 1 L 2 1 z M 2 3 L 6 3 C 6.666 3.02 7.168 3.8395 6.877 4.4395 L 5.502 7.2207 C 5.856 7.3307 6.2497 7.4102 6.4688 7.6602 C 6.8017 8.0202 7 8.47 7 9 L 7 11 C 7 12.11 6.093 13 5 13 L 2 13 L 2 11 L 5 11 L 5 9 L 4 9 C 3.334 8.98 2.835 8.1605 3.127 7.5605 L 4.377 5 L 2 5 L 2 3 z M 10 3 L 12 3 C 14 3 14 5 14 5 L 14 6 L 12 6 L 12 5 L 10 5 L 10 11 L 12 11 L 12 9 L 11 9 L 11 7 L 14 7 L 14 11 C 14 11 14 13 12 13 L 10 13 C 10 13 8 13 8 11 L 8 5 C 8 3 10 3 10 3 z"/>
</svg>
